X:887
T:Tom Billy's
T:Speed the Plough
S:Sessions
Z:Nigel Gatherer
M:4/4
L:1/8
K:D
d3 A BAFB | AF F/F/F EFDE | F2AF G2BG | ABde fdd2  |
fedf edBc | dBAF     EFDE | F2AF G2BG | ABde fdd2 :|
f3 a afdf | g2fg edBd | f3 a bafd | ABde fdd2  |
f3 a afdf | g2fg edBA | F2AF G2BG | ABde fdd2 :|
<end>
<start>
